svgs/sharp-light/bowl-hot.svg

<svg xmlns="http://www.w3.org/2000/svg" viewBox="0 0 512 512"><!--! Font Awesome Pro 6.6.0 by @fontawesome - https://fontawesome.com License - https://fontawesome.com/license (Commercial License) Copyright 2024 Fonticons, Inc. --><path d="M160 0L128 0l0 16 0 16c0 30.2 14.2 58.7 38.4 76.8C182.5 120.9 192 139.9 192 160l0 16 0 16 32 0 0-16 0-16c0-24.8-9.6-48.4-26.4-66.1l.8-1.1-12.8-9.6C169.5 71.1 160 52.1 160 32l0-16 0-16zm0 453l-17.8-8.8C82.1 414.5 39.7 354.3 35.5 283.3L33.9 256l444.1 0-1.6 27.3c-4.2 71-46.6 131.2-106.6 160.9L352 453l0 19.9 0 7.1-192 0 0-7.1 0-19.9zM1.9 256l1.7 29.2C8.5 368.1 58 438.2 128 472.9l0 7.1 0 32 32 0 192 0 32 0 0-32 0-7.1c70-34.6 119.5-104.8 124.4-187.7l1.7-29.2 1.9-32-32.1 0L32.1 224 0 224l1.9 32zM288 16l0-16L256 0l0 16 0 16c0 30.2 14.2 58.7 38.4 76.8C310.5 120.9 320 139.9 320 160l0 16 0 16 32 0 0-16 0-16c0-24.8-9.6-48.4-26.4-66.1l.8-1.1-12.8-9.6C297.5 71.1 288 52.1 288 32l0-16z"/></svg>

<svg xmlns="http://www.w3.org/2000/svg" viewBox="0 0 512 512"><!--! Font Awesome Pro 6.4.0 by @fontawesome - https://fontawesome.com License - https://fontawesome.com/license (Commercial License) Copyright 2023 Fonticons, Inc. --><path d="M160 0H128V16 32c0 30.2 14.2 58.7 38.4 76.8C182.5 120.9 192 139.9 192 160v16 16h32V176 160c0-30.2-14.2-58.7-38.4-76.8C169.5 71.1 160 52.1 160 32V16 0zm0 453l-17.8-8.8C82.1 414.5 39.7 354.3 35.5 283.3L33.9 256H478.1l-1.6 27.3c-4.2 71-46.6 131.2-106.6 160.9L352 453v19.9V480H160v-7.1V453zM1.9 256l1.7 29.2C8.5 368.1 58 438.2 128 472.9V480v32h32H352h32V480v-7.1c70-34.6 119.5-104.8 124.4-187.7l1.7-29.2 1.9-32H479.9 32.1 0l1.9 32zM288 16V0H256V16 32c0 30.2 14.2 58.7 38.4 76.8C310.5 120.9 320 139.9 320 160v16 16h32V176 160c0-30.2-14.2-58.7-38.4-76.8C297.5 71.1 288 52.1 288 32V16z"/></svg>
